X:585
T:Paddy O'Keefe's
R:jig
Z:Transcribed by Dave Marshall
M:6/8
K:D
|:ABA DFA|BAF DFA|~d3 ede|~f3 def|
~g3 gab|afd Bcd| e3 efe |1 cBA Bcd :|2 ~d3 dcd
|:e3 efg|~f3 fga|~g3 fgf|ecB ABd|
e3 efg|~f3 fga|gfe dcB|1 A3 ABd:|2 A3 Bcd||
